X:1
T:The Old Time Way
T:Robert Harkness, 1908
T:The Old Time Way
T:Public Domain
T:Public Domain
C:Robert Harkness, 1908
Z:Public Domain
%%score ( 1 2 ) ( 3 4 )
L:1/8
M:4/4
K:Eb
V:1 treble 
V:2 treble 
V:3 bass 
V:4 bass 
V:1
 [EG]>[EF] | E2 E2 [DF]2 [DF]2 | [EG]2 [EB]4 [EG]>[DA] | [EB]4 [EG]4 | [DF]6 [FA]>[EG] | %5
w: 1.~Do you|love the bless- èd|In the old time|way? Is|your heart a-|
w: 2.~Are you|keep- ing close to|In the old time|way? Dai-|ly walk- ing|
w: 3.~Have you|made a full sur-|In the old time|way? Giv-|en all to|
w: 4.~Are you|work- ing for His|In the old time|way? Are|you lead- ing|
 [DF]2 [DF]2 [EG]2 [EG]2 | [EA]2 [Ac]4 [EB]>[EA] | [EG]4 [DF]4 | E6 ||"^Refrain" [EG]>[EF] | %10
w: glow with rap- ture|In the old time|way? *|||
w: in His pre- sence|In the old time|way? *|||
w: fol- low Je- sus|In the old time|way? *|||
w: o- thers to Him|In the old time|way? *|||
 [B,E]4 [EG]4 | [GB]6 [Ec]>[EB] | [DF]4 [EG]4 | [FA]6 [EG]>[FA] | [GB]2 [GB]2 [Ae]3 [Ac] | %15
w: |||||
w: |||||
w: |||||
w: |||||
 [GB] [EG]4- [EG] E>[EF] | [EG]4 [DF]4 | E6 |] %18
w: |||
w: |||
w: |||
w: |||
V:2
 x2 | E2 E2 x4 | x8 | x8 | x8 | x8 | x8 | x8 | E6 || x2 | x8 | x8 | x8 | x8 | x8 | x6 E3/2 x/ | %16
w: |Sav- ior|||||||||||||||
w: |Je- sus|||||||||||||||
w: |ren- der|||||||||||||||
w: |king- dom|||||||||||||||
 x8 | E6 |] %18
w: ||
w: ||
w: ||
w: ||
V:3
 [E,B,]>[E,A,] | [E,G,]2 [E,G,]2 [B,,B,]2 [B,,B,]2 | [E,B,]2 [E,G,]4 [E,B,]>[F,B,] | %3
w: ~ ~|~ ~ ~ ~|~ ~ ~ ~|
 [G,B,]4 [E,B,]4 | [B,,B,]6 [B,,B,]>[B,,B,] | [B,,B,]2 [B,,B,]2 [E,B,]2 [E,B,]2 | %6
w: ~ ~|~ ~ ~|~ ~ ~ ~|
 [A,C]2 [A,E]4 [G,B,]>[A,C] | B,4 (B,2 A,2) | [E,G,]6 || [E,B,]>[E,A,] | [E,G,]4 [E,B,]4 | %11
w: ~ ~ ~ ~|~ ~ *|the|old time|way, In|
 (E4 B,2) A,>[G,B,] | [F,B,]4 [E,B,]4 | [D,B,]6 [E,B,]>[E,B,] | [E,E]2 [E,E]2 [E,C]3 [E,E] | %15
w: the * old time|must claim|the old time|bless- ing, In the|
 [E,E] [E,B,]4- [E,B,] [G,B,]>[A,C] | B,4 (B,2 A,2) | [E,G,]6 |] %18
w: old time * way. *|||
V:4
 x2 | x8 | x8 | x8 | x8 | x8 | x8 | B,4 B,,4 | x6 || x2 | x8 | E,6 A,3/2 x/ | x8 | x8 | x8 | x8 | %16
w: |||||||~ In||||way, We|||||
 B,4 B,,4 | x6 |] %18
w: ||

